actions/symbolic/media-playlist-repeat-one-symbolic.svg

<svg viewBox="0 0 16 16" xmlns="http://www.w3.org/2000/svg"><path d="m11 2v1.8h-7.2v3.6h1.2v-2.4h6v1.8l2.4-2.4zm-3 4.2-1.2.6v.6h.9v2.4h.9v-3.6zm3 2.4v2.4h-6v-1.8l-2.4 2.4 2.4 2.4v-1.8h7.2v-3.6z" fill="#bebebe"/></svg>

<?xml version="1.0" encoding="UTF-8" standalone="no"?>
<svg
   xmlns:dc="http://purl.org/dc/elements/1.1/"
   xmlns:cc="http://creativecommons.org/ns#"
   xmlns:rdf="http://www.w3.org/1999/02/22-rdf-syntax-ns#"
   xmlns:svg="http://www.w3.org/2000/svg"
   xmlns="http://www.w3.org/2000/svg"
   xmlns:sodipodi="http://sodipodi.sourceforge.net/DTD/sodipodi-0.dtd"
   xmlns:inkscape="http://www.inkscape.org/namespaces/inkscape"
   viewBox="0 0 16 16"
   id="svg3197"
   version="1.1"
   inkscape:version="0.91 r13725"
   sodipodi:docname="media-playlist-repeat-one-symbolic.svg">
  <metadata
     id="metadata3205">
    <rdf:RDF>
      <cc:Work
         rdf:about="">
        <dc:format>image/svg+xml</dc:format>
        <dc:type
           rdf:resource="http://purl.org/dc/dcmitype/StillImage" />
      </cc:Work>
    </rdf:RDF>
  </metadata>
  <sodipodi:namedview
     pagecolor="#ffffff"
     bordercolor="#666666"
     borderopacity="1"
     objecttolerance="10"
     gridtolerance="10"
     guidetolerance="10"
     inkscape:pageopacity="0"
     inkscape:pageshadow="2"
     inkscape:window-width="640"
     inkscape:window-height="480"
     id="namedview3203"
     showgrid="false"
     inkscape:zoom="39.8125"
     inkscape:cx="4.0816327"
     inkscape:cy="8"
     inkscape:current-layer="svg3197" />
  <defs
     id="defs3051">
    <style
       type="text/css"
       id="current-color-scheme">
      .ColorScheme-Text {
        color:#bebebe;
      }
      </style>
  </defs>
  <path
     style="color:#bebebe;fill:currentColor;fill-opacity:1;stroke:none"
     class="ColorScheme-Text"
     d="m 11,2 0,1.8 -7.2,0 0,3.6 L 5,7.4 5,5 11,5 11,6.8 13.4,4.4 11,2 Z m -3,4.2 -1.2,0.6 0,0.6 0.9,0 0,2.4 0.9,0 0,-3.6 -0.6,0 z M 11,8.6 11,11 5,11 5,9.2 2.6,11.6 5,14 l 0,-1.8 7.2,0 0,-3.6 -1.2,0 z"
     id="path3201"
     inkscape:connector-curvature="0" />
</svg>
